mobile/24/svg/notification-slash-24.svg

<svg width="24" height="24" viewBox="0 0 24 24" fill="none" xmlns="http://www.w3.org/2000/svg">
<path fill-rule="evenodd" clip-rule="evenodd" d="M18.2374 17L21.9997 20.7622L20.7622 21.9997L18 19.2374V21.125C18 21.479 17.787 21.798 17.46 21.934C17.352 21.979 17.238 22 17.125 22C16.897 22 16.674 21.911 16.506 21.744L11.763 17H4.5C3.121 17 2 15.879 2 14.5V4.5C2 4.13006 2.08117 3.7793 2.2265 3.46394L1.00024 2.23768L2.23768 1.00024L3.46724 2.22981L3.469 2.229L4.99 3.75H4.98744L11.4874 10.25H11.49L13 11.76V11.7626L16.6479 15.4104L16.65 15.409L18.24 17H18.2374ZM9.01256 10.25H6V12H10.7626L16.25 17.4874V19.013L12.744 15.506C12.58 15.342 12.357 15.25 12.125 15.25H4.5C4.087 15.25 3.75 14.913 3.75 14.5V4.98744L9.01256 10.25Z" fill="black"/>
<path d="M7.11096 3.75H19.5C19.913 3.75 20.25 4.087 20.25 4.5V14.5C20.25 14.913 19.913 15.25 19.5 15.25H18.611L20.237 16.876C21.255 16.559 22 15.62 22 14.5V4.5C22 3.121 20.879 2 19.5 2H5.36096L7.11096 3.75Z" fill="black"/>
<path d="M11.361 8H18V6.25H9.61096L11.361 8Z" fill="black"/>
</svg>

<svg width="24" height="24" fill="none" xmlns="http://www.w3.org/2000/svg"><path fill-rule="evenodd" clip-rule="evenodd" d="M18.237 17 22 20.762 20.762 22 18 19.237v1.888a.876.876 0 0 1-1.494.619L11.763 17H4.5A2.502 2.502 0 0 1 2 14.5v-10c0-.37.081-.72.227-1.036L1 2.238 2.238 1l1.23 1.23.001-.001L4.99 3.75h-.003l6.5 6.5h.003L13 11.76v.003l3.648 3.647.002-.001L18.24 17h-.003zm-9.224-6.75H6V12h4.763l5.487 5.487v1.526l-3.506-3.507a.876.876 0 0 0-.619-.256H4.5a.752.752 0 0 1-.75-.75V4.987l5.263 5.263z" fill="#000"/><path d="M7.111 3.75H19.5c.413 0 .75.337.75.75v10c0 .413-.337.75-.75.75h-.889l1.626 1.626A2.494 2.494 0 0 0 22 14.5v-10C22 3.121 20.879 2 19.5 2H5.361l1.75 1.75z" fill="#000"/><path d="M11.361 8H18V6.25H9.611L11.361 8z" fill="#000"/></svg>
